star-shooting.svg

<svg fill="currentColor" viewBox="0 0 24 24"><path d="m18.09 11.77 1.47 6.33L14 14.74 8.44 18.1l1.46-6.33L5 7.5l6.47-.54L14 1l2.53 5.96L23 7.5zM2 12.43c.19 0 .38-.06.55-.17l3.2-2.11-1.57-1.36-2.73 1.8c-.461.3-.589.91-.29 1.41.2.27.52.43.84.43m-.84 9.12c.2.29.52.45.84.45.19 0 .38-.05.55-.16l4.11-2.71.34-1.37.31-1.45-5.86 3.85c-.461.31-.589.93-.29 1.39m.29-6.17a1 1 0 0 0-.29 1.38c.2.3.52.45.84.45.19 0 .38-.05.55-.16l5.42-3.55.27-1.19-.92-.81z"/></svg>

<svg  viewBox="0 0 24 24" fill="currentColor"><path  d="M18.09 11.77L19.56 18.1L14 14.74L8.44 18.1L9.9 11.77L5 7.5L11.47 6.96L14 1L16.53 6.96L23 7.5L18.09 11.77M2 12.43C2.19 12.43 2.38 12.37 2.55 12.26L5.75 10.15L4.18 8.79L1.45 10.59C.989 10.89 .861 11.5 1.16 12C1.36 12.27 1.68 12.43 2 12.43M1.16 21.55C1.36 21.84 1.68 22 2 22C2.19 22 2.38 21.95 2.55 21.84L6.66 19.13L7 17.76L7.31 16.31L1.45 20.16C.989 20.47 .861 21.09 1.16 21.55M1.45 15.38C.989 15.68 .861 16.3 1.16 16.76C1.36 17.06 1.68 17.21 2 17.21C2.19 17.21 2.38 17.16 2.55 17.05L7.97 13.5L8.24 12.31L7.32 11.5L1.45 15.38Z"/></svg>
